X:1
T:Karlsruhe, 86.86.86 D
T:Karlsruhe, 86.86.86 D
T:Augsburg Songs, 1885
T:Public Domain Courtesy of the Cyber Hymnal™
C:Augsburg Songs, 1885
Z:Public Domain
Z:Courtesy of the Cyber Hymnal™
%%score ( 1 2 ) ( 3 4 )
L:1/8
Q:1/4=105
M:4/4
K:F
V:1 treble 
V:2 treble 
V:3 bass 
V:4 bass 
V:1
 (FA) | [Fc]2 [Fc]2 [F=B]2 [Fc]2 | [Fd]3 [Fc] [FA]2 ([GB][FA]) | %3
 [EG]2 [EG]2 ([EG][Bd]) ([Ac][GB]) | [FA]6 (FA) | [Fc]2 [Fc]2 [F=B]2 [Fc]2 | %6
 [Fd]3 [Fc] [FA]2 ([GB][FA]) | [EG]2 [Ed]2 c3 z E | [CF]6 ([GB][FA]) | %9
 [EG]2 [EG]2 [EG]2 ([Ac][GB]) | [FA]2 [FA]2 [FA]2 (Ac) | [Fd]2 [Fd]2 [Ff]2 (ed) | %12
 [Fc]6 ([GB][FA]) | [EG]2 [EG]2 [EG]2 ([Ac][GB]) | [FA]2 [FA]2 [FA]2 [Ac]2 | %15
 [G=B]2 [Gd]2 [Gf]2 ([Ge][Fd]) |"^rall." ([Ec]2 [F=B]2 !fermata![G_B]2) (AB) | %17
 [Fc]2 [Fc]2 [F=B]2 [Fc]2 | [Fd]3 [Fc] [FA]2 ([GB][FA]) | [EG]2 [EG]2 ([EG][Bd]) ([Ac][GB]) | %20
 [FA]6 (FA) | [Fc]2 [Fc]2 [F=B]2 [Fc]2 | [Fd]3 [Fc] [FA]2 ([GB][FA]) | [EG]2 [Ed]2 c3 z E | %24
 [CF]6 |] %25
V:2
 F2 | x8 | x8 | x8 | x6 F2 | x8 | x8 | x4 F2 C2 x | x8 | x8 | x6 F2 | x6 F2 | x8 | x8 | x8 | x8 | %16
 x6 F2 | x8 | x8 | x8 | x6 F2 | x8 | x8 | x4 F2 C2 x | x6 |] %25
V:3
 (A,C) | [F,A,]2 [F,A,]2 [F,^G,]2 [F,A,]2 | [F,B,]3 [F,A,] [F,C]2 [F,C]2 | %3
 [C,C]2 [C,C]2 [C,C]2 [C,C]2 | [F,C]6 (A,C) | [F,A,]2 [F,A,]2 [F,^G,]2 [F,A,]2 | %6
 [F,B,]3 [F,A,] [F,C]2 [F,C]2 | [C,C]2 [C,B,]2 [C,A,]2 [C,G,]2 x | [F,A,]6 [C,C]2 | %9
 [C,C]2 [C,C]2 [C,C]2 [C,C]2 | [F,C]2 [F,C]2 [F,C]2 (CA,) | B,2 B,2 [B,D]2 (CB,) | [F,A,]6 [C,C]2 | %13
 [C,C]2 [C,C]2 [C,C]2 [C,C]2 | [F,C]2 [F,C]2 [F,C]2 [F,C]2 | [G,D]2 [G,=B,]2 [G,D]2 (CB,) | %16
 G,4 [E,C]2 [F,C]2 | [F,A,]2 [F,A,]2 [F,^G,]2 [F,A,]2 | [F,B,]3 [F,A,] [F,C]2 [F,C]2 | %19
 [C,C]2 [C,C]2 [C,C]2 [C,C]2 | [F,C]6 (A,C) | [F,A,]2 [F,A,]2 [F,^G,]2 [F,A,]2 | %22
 [F,B,]3 [F,A,] [F,C]2 [F,C]2 | [C,C]2 [C,B,]2 [C,A,]2 [C,G,]2 x | [F,A,]6 |] %25
V:4
 F,2 | x8 | x8 | x8 | x6 F,2 | x8 | x8 | x9 | x8 | x8 | x6 F,2 | B,2 B,2 B,2 x2 | x8 | x8 | x8 | %15
 x6 G,2 | C,2 D,2 x4 | x8 | x8 | x8 | x6 F,2 | x8 | x8 | x9 | x6 |] %25

